X:615
T:Caliope House
C:Cobblestone
R:jig
C:
N:Played in D or E. The original is in E.
D:Patrick Street 1.
Z:
M:6/8
K:G
D|:"G"GDD BDD|"D"ADD "G"BDD|"Am"EAA A2G|ABG "C"EGE|
|1"G"DED D2B,|D2E G2A|"C"BdB BAG|"D"(A3 A2)D:|
|2"G"DED D2B,|"Em"D2E G2A|"C"BdB "D"AGE|"G"(G3 G)Bc||
|:"G"d3 Bdd|"D"Add "G"Bdd|"C"c3 "G"BcB|"Am"ABA AGE|
|1"G"DED D2B,|D2E G2A|"C"BdB BAG|"D"(A3 A)Bc:|
|2"G"DED D2B,|"Em"D2E G2A|"C"BdB "D"AGE|"G"(G3 G2)D||
